packages/ui/assets/svg/kcs.svg

<svg class="icon-size" viewBox="0 0 34 32" fill="none" xmlns="http://www.w3.org/2000/svg">
<path d="M33.8471 13.6492L32.8876 12.042L27.6342 3.21437H27.6102L27.4423 2.90253H25.5233L18.063 16.024L25.6432 29.0734H27.5622L27.6102 29.0015L33.8711 18.2788H30.009L26.6747 24.2039L21.9251 16L26.5787 7.79608L29.961 13.6252L33.8471 13.6492Z" fill="#41E6AF"/>
<path d="M4.65367 11.5142L8.15592 5.54123L6.98051 3.64618L6.16492 2.30285L0.167916 12.8816L0 13.1694L0.95952 14.8486H16.048L23.6522 1.82309L22.5967 0L12.042 0.0239879H11.8741L10.1949 0L11.0825 1.67916L11.97 3.35832L18.8786 3.33433L14.1289 11.5142H4.65367Z" fill="#41E6AF"/>
<path d="M12.114 4.60571C11.8501 4.60571 11.5623 4.65369 11.2744 4.74964C10.9626 4.84559 10.6507 4.98952 10.3629 5.15744C9.54728 5.66118 8.97157 6.38083 8.87561 7.05249C8.82764 7.36433 8.8996 7.6282 9.06752 7.82011C9.09151 7.86808 9.13948 7.89207 9.16347 7.94005C9.18746 7.96403 9.21145 7.96403 9.23543 7.98802C9.25942 8.01201 9.25942 8.01201 9.28341 8.036C9.33139 8.05999 9.35537 8.08397 9.40335 8.10796C9.9071 8.34784 10.6987 8.29987 11.4663 7.94005L11.4903 7.91606C11.5623 7.89207 11.6342 7.84409 11.7062 7.82011C11.7782 7.79612 11.8261 7.74814 11.8981 7.70017C11.9701 7.65219 12.042 7.60421 12.114 7.55624C12.186 7.50826 12.2339 7.46029 12.3059 7.41231L12.3539 7.38832C12.4019 7.34035 12.4498 7.31636 12.4978 7.26838C12.5218 7.24439 12.5218 7.24439 12.5458 7.22041C12.5938 7.19642 12.6177 7.14844 12.6417 7.12445C12.6657 7.10047 12.6897 7.07648 12.7137 7.0285C12.7377 6.98053 12.7857 6.95654 12.8096 6.90856C12.8336 6.88457 12.8336 6.88457 12.8576 6.86059C12.8816 6.81261 12.9296 6.78862 12.9536 6.74065L13.0016 6.69267C13.0255 6.64469 13.0495 6.62071 13.0735 6.57273C13.0735 6.57273 13.0735 6.57273 13.0735 6.54874L13.0975 6.50077C13.1455 6.45279 13.1695 6.38083 13.1935 6.33285C13.2174 6.28487 13.2414 6.21291 13.2654 6.16493L13.2894 6.14095C13.2894 6.11696 13.3134 6.09297 13.3134 6.09297C13.3134 6.06898 13.3134 6.06898 13.3374 6.04499C13.3374 5.99702 13.3614 5.97303 13.3614 5.92505C13.3614 5.87708 13.3854 5.87708 13.3854 5.85309C13.3854 5.8291 13.3854 5.80511 13.3854 5.80511C13.3854 5.75714 13.3854 5.73315 13.3854 5.70916V5.66119C13.3854 5.61321 13.3854 5.58922 13.3854 5.54125C13.3854 5.51726 13.3854 5.51726 13.3854 5.49327C13.3854 5.46928 13.3854 5.44529 13.3854 5.44529C13.3854 5.42131 13.3854 5.4213 13.3854 5.39732V5.37333C13.3854 5.32535 13.3614 5.30137 13.3374 5.25339C13.3134 5.20541 13.2894 5.18143 13.2654 5.13345C13.0975 4.77363 12.6417 4.60571 12.114 4.60571Z" fill="#41E6AF"/>
<path d="M13.8651 6.35682C13.8651 6.4048 13.8411 6.42879 13.8171 6.47676C13.8171 6.50075 13.8171 6.50075 13.7931 6.52474C13.7691 6.5967 13.7451 6.64468 13.6972 6.71664C13.4333 7.22039 13.0015 7.70015 12.4738 8.08396C12.4018 8.13194 12.3298 8.17991 12.2579 8.22789C12.1859 8.27586 12.114 8.32384 12.042 8.34783H12.018C11.994 8.37182 11.97 8.37182 11.946 8.3958C11.8981 8.41979 11.8741 8.44378 11.8261 8.46777H11.8021C11.7781 8.46777 11.7541 8.49176 11.7301 8.49176C11.6822 8.51575 11.6342 8.53973 11.5862 8.53973L11.5382 8.56372C11.5382 8.56372 11.5382 8.56372 11.5143 8.56372C11.4903 8.56372 11.4663 8.58771 11.4423 8.58771C11.3943 8.6117 11.3463 8.6117 11.2984 8.63568L11.2504 8.65967H11.2264C11.1784 8.68366 11.1304 8.68366 11.0825 8.70765C11.0585 8.70765 11.0345 8.73164 10.9865 8.73164H10.9625C10.9146 8.73164 10.8666 8.75562 10.8426 8.75562C10.8186 8.75562 10.7706 8.75563 10.7466 8.77961H10.7227C10.6987 8.77961 10.6747 8.77961 10.6507 8.8036C10.6267 8.8036 10.6027 8.8036 10.5787 8.8036C10.5068 8.8036 10.4108 8.82759 10.3388 8.82759H10.3149C10.2429 8.82759 10.1709 8.82759 10.099 8.82759C10.075 8.82759 10.051 8.82759 10.051 8.82759H10.027C9.97902 8.82759 9.93105 8.82759 9.88307 8.8036C9.85908 8.8036 9.8351 8.8036 9.81111 8.77961C9.76313 8.77961 9.71515 8.75562 9.66718 8.75562C9.64319 8.75562 9.6192 8.73164 9.59521 8.73164L10.9146 10.8666L13.7451 10.8426L15.2084 8.25188L13.8891 6.09296C13.8891 6.11694 13.8891 6.14093 13.8651 6.16492C13.8651 6.18891 13.8651 6.18891 13.8651 6.2129C13.8651 6.23688 13.8411 6.26087 13.8411 6.30885C13.8651 6.33284 13.8651 6.35682 13.8651 6.35682Z" fill="#41E6AF"/>
<path d="M28.9055 14.1529C29.0494 14.3688 29.1454 14.6327 29.2174 14.9445C29.2893 15.2564 29.3373 15.5922 29.3373 15.928C29.3373 16.8875 29.0255 17.7511 28.4977 18.1829C28.2578 18.3748 27.994 18.4708 27.7301 18.4228C27.6821 18.4228 27.6342 18.3988 27.5862 18.3988C27.5622 18.3988 27.5382 18.3748 27.5142 18.3748C27.4902 18.3748 27.4662 18.3508 27.4423 18.3508C27.3943 18.3268 27.3463 18.3028 27.3223 18.2789C26.8426 17.967 26.4827 17.2714 26.3868 16.4318V16.4078C26.3868 16.3358 26.3628 16.2639 26.3628 16.1679C26.3628 16.0959 26.3628 16.024 26.3628 15.952C26.3628 15.8561 26.3628 15.7841 26.3628 15.6881C26.3628 15.6162 26.3628 15.5442 26.3868 15.4723V15.4243C26.3868 15.3763 26.4108 15.3043 26.4108 15.2564C26.4108 15.2324 26.4108 15.2084 26.4108 15.1844C26.4108 15.1364 26.4348 15.0884 26.4348 15.0405C26.4348 14.9925 26.4587 14.9685 26.4587 14.9205C26.4827 14.8726 26.4827 14.8246 26.5067 14.7766C26.5067 14.7526 26.5307 14.7286 26.5307 14.7046C26.5547 14.6567 26.5547 14.6087 26.5787 14.5607L26.6027 14.4887C26.6267 14.4408 26.6506 14.4168 26.6506 14.3688C26.6506 14.3688 26.6506 14.3688 26.6506 14.3448L26.6746 14.2968C26.6986 14.2249 26.7466 14.1769 26.7706 14.1289C26.7946 14.081 26.8426 14.033 26.8665 13.985L26.8905 13.961C26.9145 13.937 26.9145 13.937 26.9385 13.913C26.9625 13.889 26.9625 13.889 26.9625 13.8651C26.9865 13.8411 27.0105 13.8171 27.0345 13.7931C27.0584 13.7691 27.0824 13.7451 27.0824 13.7451C27.1064 13.7211 27.1064 13.7211 27.1304 13.6971C27.1544 13.6732 27.1784 13.6492 27.2024 13.6252L27.2503 13.6012C27.2743 13.5772 27.3223 13.5532 27.3463 13.5292C27.3703 13.5292 27.3703 13.5292 27.3943 13.5052C27.4183 13.5052 27.4423 13.4813 27.4423 13.4813C27.4423 13.4813 27.4662 13.4813 27.4662 13.4573H27.4902C27.5382 13.4573 27.5622 13.4333 27.6102 13.4333C27.6581 13.4333 27.7061 13.4333 27.7541 13.4333C28.2578 13.4093 28.6177 13.6971 28.9055 14.1529Z" fill="#41E6AF"/>
<path d="M26.4828 13.5772C26.4588 13.6012 26.4348 13.6492 26.4108 13.6732C26.4108 13.6972 26.3868 13.6972 26.3868 13.7211C26.3389 13.7691 26.3149 13.8411 26.2669 13.8891C25.9551 14.3688 25.7871 14.9925 25.7392 15.6402C25.7392 15.7361 25.7392 15.8081 25.7392 15.9041C25.7392 15.976 25.7392 16.072 25.7392 16.1439V16.1679C25.7392 16.1919 25.7392 16.2399 25.7392 16.2639C25.7392 16.3119 25.7392 16.3598 25.7632 16.4078V16.4318C25.7632 16.4558 25.7632 16.4798 25.7632 16.5038C25.7632 16.5517 25.7871 16.5997 25.7871 16.6477V16.6957C25.7871 16.6957 25.7871 16.6957 25.7871 16.7196C25.7871 16.7436 25.7871 16.7676 25.8111 16.7916C25.8111 16.8396 25.8351 16.8876 25.8351 16.9355L25.8591 16.9835V17.0075C25.8591 17.0555 25.8831 17.1035 25.9071 17.1514C25.9071 17.1754 25.9311 17.1994 25.9311 17.2234V17.2474C25.9551 17.2954 25.9551 17.3193 25.979 17.3673C25.979 17.3913 26.003 17.4153 26.027 17.4633V17.4873C26.027 17.5113 26.051 17.5352 26.051 17.5592C26.075 17.5832 26.075 17.6072 26.075 17.6072C26.099 17.6792 26.147 17.7511 26.1949 17.8231L26.2189 17.8471C26.2669 17.919 26.2909 17.967 26.3389 18.015C26.3389 18.039 26.3629 18.039 26.3629 18.063L26.3868 18.087C26.4108 18.1349 26.4588 18.1589 26.4828 18.2069C26.5068 18.2309 26.5068 18.2549 26.5308 18.2549C26.5787 18.3029 26.6027 18.3268 26.6267 18.3748C26.6507 18.3988 26.6747 18.3988 26.6747 18.4228H24.156L22.6927 16L24.132 13.4093H26.6507C26.6267 13.4333 26.6267 13.4333 26.6027 13.4573L26.5787 13.4813C26.5548 13.5053 26.5308 13.5292 26.4828 13.5772C26.4828 13.5772 26.5068 13.5772 26.4828 13.5772Z" fill="#41E6AF"/>
<path d="M12.114 27.3703C11.8501 27.3703 11.5623 27.3223 11.2744 27.2264C10.9626 27.1304 10.6507 26.9865 10.3629 26.8186C9.54728 26.3148 8.97157 25.5952 8.87561 24.9235C8.82764 24.6117 8.8996 24.3478 9.06752 24.1559C9.09151 24.1079 9.13948 24.0839 9.16347 24.036C9.18746 24.012 9.21145 24.012 9.23543 23.988C9.25942 23.964 9.25942 23.964 9.28341 23.94C9.33139 23.916 9.35537 23.892 9.40335 23.8681C9.9071 23.6282 10.6987 23.6761 11.4663 24.036L11.4903 24.06C11.5623 24.0839 11.6342 24.1319 11.7062 24.1559C11.7782 24.1799 11.8261 24.2279 11.8981 24.2758C11.9701 24.3238 12.042 24.3718 12.114 24.4198C12.186 24.4678 12.2339 24.5157 12.3059 24.5637L12.3539 24.5877C12.4019 24.6357 12.4498 24.6597 12.4978 24.7076C12.5218 24.7316 12.5218 24.7316 12.5458 24.7556C12.5938 24.7796 12.6177 24.8276 12.6417 24.8516C12.6657 24.8755 12.6897 24.8995 12.7137 24.9475C12.7377 24.9955 12.7857 25.0195 12.8096 25.0675C12.8336 25.0914 12.8336 25.0914 12.8576 25.1154C12.8816 25.1634 12.9296 25.1874 12.9536 25.2354L13.0016 25.2833C13.0255 25.3313 13.0495 25.3553 13.0735 25.4033V25.4273L13.0975 25.4752C13.1455 25.5232 13.1695 25.5952 13.1935 25.6432C13.2174 25.6911 13.2414 25.7631 13.2654 25.8111L13.2894 25.8351C13.2894 25.8591 13.3134 25.883 13.3134 25.883C13.3134 25.907 13.3134 25.907 13.3374 25.931C13.3374 25.979 13.3614 26.003 13.3614 26.051C13.3614 26.0989 13.3854 26.0989 13.3854 26.1229C13.3854 26.1469 13.3854 26.1709 13.3854 26.1709C13.3854 26.2189 13.3854 26.2429 13.3854 26.2669V26.3148C13.3854 26.3628 13.3854 26.3868 13.3854 26.4348C13.3854 26.4588 13.3854 26.4588 13.3854 26.4827C13.3854 26.5067 13.3854 26.5307 13.3854 26.5307C13.3854 26.5547 13.3854 26.5547 13.3854 26.5787V26.6027C13.3854 26.6507 13.3614 26.6746 13.3374 26.7226C13.3134 26.7706 13.2894 26.7946 13.2654 26.8426C13.0975 27.2024 12.6417 27.3943 12.114 27.3703Z" fill="#41E6AF"/>
<path d="M13.8651 25.6192C13.8651 25.5712 13.8411 25.5472 13.8171 25.4992C13.8171 25.4753 13.8171 25.4753 13.7931 25.4513C13.7691 25.3793 13.7451 25.3313 13.6972 25.2594C13.4333 24.7556 13.0015 24.2759 12.4738 23.892C12.4018 23.8441 12.3298 23.7961 12.2579 23.7481C12.1859 23.7001 12.114 23.6522 12.042 23.6282H12.018C11.994 23.6042 11.97 23.6042 11.946 23.5802C11.8981 23.5562 11.8741 23.5322 11.8261 23.5082H11.8021C11.7781 23.5082 11.7541 23.4842 11.7301 23.4842C11.6822 23.4603 11.6342 23.4363 11.5862 23.4363L11.5382 23.4123C11.5382 23.4123 11.5382 23.4123 11.5143 23.4123C11.4903 23.4123 11.4663 23.3883 11.4423 23.3883C11.3943 23.3643 11.3463 23.3643 11.2984 23.3403L11.2504 23.3163H11.2264C11.1784 23.2923 11.1304 23.2923 11.0825 23.2684C11.0585 23.2684 11.0345 23.2444 10.9865 23.2444H10.9625C10.9146 23.2444 10.8666 23.2204 10.8426 23.2204C10.8186 23.2204 10.7706 23.2204 10.7466 23.1964H10.7227C10.6987 23.1964 10.6747 23.1964 10.6507 23.1724C10.6267 23.1724 10.6027 23.1724 10.5787 23.1724C10.5068 23.1724 10.4108 23.1484 10.3388 23.1484H10.3149C10.2429 23.1484 10.1709 23.1484 10.099 23.1484C10.075 23.1484 10.051 23.1484 10.051 23.1484H10.027C9.97902 23.1484 9.93105 23.1484 9.88307 23.1724C9.85908 23.1724 9.8351 23.1724 9.81111 23.1964C9.76313 23.1964 9.71515 23.2204 9.66718 23.2204C9.64319 23.2204 9.6192 23.2444 9.59521 23.2444L10.9146 21.1094L13.7451 21.1334L15.2084 23.7241L13.8891 25.883C13.8891 25.8591 13.8891 25.8351 13.8651 25.8111C13.8651 25.7871 13.8651 25.7871 13.8651 25.7631C13.8651 25.7391 13.8411 25.7151 13.8411 25.6672C13.8651 25.6432 13.8651 25.6192 13.8651 25.6192Z" fill="#41E6AF"/>
<path d="M18.8786 28.6417L11.97 28.6177L10.9145 30.6087L10.1949 31.976L12.042 31.952V31.976L22.5967 32L23.6522 30.1769L16.048 17.1514L0.95952 17.1274L0 18.8066L0.191904 19.1184H0.167916L6.16492 29.6732L8.15592 26.4348L4.65367 20.4858H14.1289L18.8786 28.6417Z" fill="#41E6AF"/>
</svg>

<svg class="icon-size" viewBox="0 0 34 32" fill="none" xmlns="http://www.w3.org/2000/svg"><path d="m33.847 13.65-.96-1.608-5.253-8.828h-.024l-.168-.311h-1.919l-7.46 13.121 7.58 13.05h1.92L27.61 29l6.261-10.722H30.01l-3.334 5.925L21.925 16l4.654-8.204 3.382 5.83 3.886.023ZM4.654 11.514l3.502-5.973L6.98 3.646l-.816-1.343L.168 12.882 0 13.169l.96 1.68h15.088l7.604-13.026L22.597 0 12.042.024h-.168L10.194 0l.888 1.68.888 1.678 6.909-.024-4.75 8.18H4.654Z" fill="#41E6AF"/><path d="M12.114 4.606c-.264 0-.552.048-.84.144-.311.096-.623.24-.911.407-.816.504-1.391 1.224-1.487 1.895-.048.312.024.576.192.768.024.048.071.072.095.12.024.024.048.024.072.048l.048.048c.048.024.072.048.12.072.504.24 1.296.192 2.063-.168l.024-.024c.072-.024.144-.072.216-.096.072-.024.12-.072.192-.12l.216-.144c.072-.048.12-.096.192-.144l.048-.024c.048-.048.096-.072.144-.12l.048-.048c.048-.024.072-.072.096-.096a.331.331 0 0 0 .072-.095c.024-.048.072-.072.096-.12l.048-.048c.024-.048.072-.072.096-.12l.048-.048c.023-.048.047-.072.071-.12v-.024l.024-.048c.049-.048.072-.12.097-.168.023-.048.047-.12.071-.168l.024-.024c0-.024.024-.048.024-.048 0-.024 0-.024.024-.048 0-.048.024-.072.024-.12s.024-.048.024-.072v-.48c0-.048-.024-.072-.048-.12s-.048-.072-.072-.12c-.168-.36-.623-.527-1.151-.527Z" fill="#41E6AF"/><path d="M13.865 6.357c0 .048-.024.072-.048.12 0 .024 0 .024-.024.048a.72.72 0 0 1-.096.192c-.264.503-.695.983-1.223 1.367l-.216.144c-.072.048-.144.096-.216.12h-.024c-.024.024-.048.024-.072.048-.048.024-.072.048-.12.072h-.024c-.024 0-.048.024-.072.024a.34.34 0 0 1-.144.048l-.048.024h-.024c-.024 0-.048.024-.072.024-.048.024-.096.024-.144.048l-.048.024h-.024c-.048.024-.096.024-.144.048-.024 0-.048.024-.096.024h-.024c-.047 0-.095.024-.12.024-.023 0-.071 0-.095.024h-.024c-.024 0-.048 0-.072.024h-.072c-.072 0-.168.024-.24.024h-.312c-.048 0-.096 0-.144-.024-.024 0-.048 0-.072-.024-.048 0-.096-.024-.144-.024-.024 0-.048-.024-.072-.024l1.32 2.135 2.83-.024 1.463-2.591-1.319-2.159c0 .024 0 .048-.024.072v.048c0 .024-.024.048-.024.096.024.024.024.048.024.048ZM28.905 14.153c.144.216.24.48.312.791.072.312.12.648.12.984 0 .96-.311 1.823-.84 2.255-.24.192-.503.288-.767.24-.048 0-.096-.024-.144-.024-.024 0-.048-.024-.072-.024-.024 0-.048-.024-.072-.024-.048-.024-.096-.048-.12-.072-.48-.312-.84-1.008-.935-1.847v-.024c0-.072-.024-.144-.024-.24v-.48c0-.072 0-.144.024-.216v-.048c0-.048.024-.12.024-.168v-.072c0-.048.024-.096.024-.143 0-.049.024-.072.024-.12.024-.048.024-.096.048-.144 0-.024.024-.048.024-.072.024-.048.024-.096.048-.144l.024-.072c.024-.048.048-.072.048-.12v-.024l.024-.048c.024-.072.072-.12.096-.168.024-.048.072-.096.095-.144l.024-.024.049-.048c.023-.024.023-.024.023-.048l.073-.072.047-.048.048-.048.072-.072.048-.024c.024-.024.072-.048.096-.072.024 0 .024 0 .048-.024.024 0 .048-.024.048-.024s.024 0 .024-.024h.024c.048 0 .072-.024.12-.024h.144c.504-.024.864.264 1.151.72Z" fill="#41E6AF"/><path d="M26.483 13.577c-.024.024-.048.072-.072.096 0 .024-.024.024-.024.048-.048.048-.072.12-.12.168-.312.48-.48 1.104-.528 1.751v.624c0 .048 0 .096.024.144v.096c0 .048.024.096.024.144V16.72c0 .024 0 .048.024.072 0 .048.024.096.024.143l.024.049v.023a.34.34 0 0 0 .048.144c0 .024.024.048.024.072v.024c.024.048.024.072.048.12 0 .024.024.048.048.096v.024c0 .024.024.048.024.072.024.024.024.048.024.048.024.072.072.144.12.216l.024.024c.048.072.072.12.12.168 0 .024.024.024.024.048l.024.024c.024.048.072.072.096.12.024.024.024.048.048.048.048.048.072.072.096.12.024.024.048.024.048.048h-2.519L22.693 16l1.439-2.59h2.519l-.048.047-.024.024-.096.096s.024 0 0 0ZM12.114 27.37c-.264 0-.552-.048-.84-.144a4.42 4.42 0 0 1-.911-.407c-.816-.504-1.391-1.224-1.487-1.895-.048-.312.024-.576.192-.768.024-.048.071-.072.095-.12.024-.024.048-.024.072-.048l.048-.048c.048-.024.072-.048.12-.072.504-.24 1.296-.192 2.063.168l.024.024c.072.024.144.072.216.096.072.024.12.072.192.12l.216.144c.072.048.12.096.192.144l.048.024c.048.048.096.072.144.12l.048.048c.048.024.072.072.096.096a.33.33 0 0 1 .072.096c.024.047.072.072.096.12l.048.047c.024.048.072.072.096.12l.048.048c.023.048.047.072.071.12v.024l.024.048c.049.048.072.12.097.168.023.048.047.12.071.168l.024.024c0 .024.024.048.024.048 0 .024 0 .024.024.048 0 .048.024.072.024.12s.024.048.024.072v.48c0 .048-.024.072-.048.12s-.048.072-.072.12c-.168.36-.623.551-1.151.527Z" fill="#41E6AF"/><path d="M13.865 25.62c0-.049-.024-.073-.048-.12 0-.025 0-.025-.024-.049a.72.72 0 0 0-.096-.192c-.264-.503-.695-.983-1.223-1.367a161.82 161.82 0 0 1-.216-.144.972.972 0 0 0-.216-.12h-.024c-.024-.024-.048-.024-.072-.048-.048-.024-.072-.048-.12-.072h-.024c-.024 0-.048-.024-.072-.024-.048-.024-.096-.048-.144-.048l-.048-.024h-.024c-.024 0-.048-.024-.072-.024-.048-.024-.096-.024-.144-.048l-.048-.024h-.024c-.048-.024-.096-.024-.144-.048-.024 0-.048-.024-.096-.024h-.024c-.047 0-.095-.024-.12-.024-.023 0-.071 0-.095-.024h-.024c-.024 0-.048 0-.072-.024h-.072c-.072 0-.168-.024-.24-.024h-.312c-.048 0-.096 0-.144.024-.024 0-.048 0-.072.024-.048 0-.096.024-.144.024-.024 0-.048.024-.072.024l1.32-2.135 2.83.024 1.463 2.591-1.319 2.159c0-.024 0-.048-.024-.072v-.048c0-.024-.024-.048-.024-.096.024-.024.024-.048.024-.048Z" fill="#41E6AF"/><path d="m18.879 28.642-6.909-.024-1.056 1.99-.72 1.368 1.848-.024v.024L22.597 32l1.055-1.823-7.604-13.026L.96 17.127 0 18.807l.192.311H.168l5.997 10.555 1.99-3.238-3.501-5.95h9.475l4.75 8.157Z" fill="#41E6AF"/></svg>
